svg/pxred.svg

<svg xmlns="http://www.w3.org/2000/svg" width="24" height="24" viewBox="0 0 24 24"><title>pxred</title><path d="M12 23a11 11 0 1 1 11-11 11 11 0 0 1-11 11zm0-20a9 9 0 1 0 9 9 9 9 0 0 0-9-9z"/><path fill="none" d="M0 0h24v24H0z"/><path d="M13 14h-2v-1H6v3a1 1 0 0 0 1 1h10a1 1 0 0 0 1-1v-3h-5zm4-6h-2V6a1 1 0 0 0-1-1h-4a1 1 0 0 0-1 1v2H7a1 1 0 0 0-1 1v3h5v-1h2v1h5V9a1 1 0 0 0-1-1zm-3 0h-4V7h4z"/></svg>

<svg xmlns="http://www.w3.org/2000/svg" width="24" height="24" viewBox="0 0 24 24">
  <title>pxred</title>
  <path d="M12,23A11,11,0,1,1,23,12,11,11,0,0,1,12,23ZM12,3a9,9,0,1,0,9,9A9,9,0,0,0,12,3Z"/>
  <rect width="24" height="24" fill="none"/>
  <path d="M13,14H11V13H6v3a1,1,0,0,0,1,1H17a1,1,0,0,0,1-1V13H13Zm4-6H15V6a1,1,0,0,0-1-1H10A1,1,0,0,0,9,6V8H7A1,1,0,0,0,6,9v3h5V11h2v1h5V9A1,1,0,0,0,17,8ZM14,8H10V7h4Z"/>
</svg>
